src/static/logos/origami.svg

<svg width="256" height="261" xmlns="http://www.w3.org/2000/svg" preserveAspectRatio="xMidYMid"><path d="M92.5 92.2V0H0l92.5 92.2zM256 70.9l-33.3-32.8-46.3 46L92.5 0v260.9l130.2-130.5V70.9H256z" fill="#0991FF"/><path d="M0 0l92.5 92.2V0H0" fill="#62CCFD"/><path d="M92.5 260.9V0l130.2 130.4L92.5 260.9" fill="#0991FF"/><path d="M222.7 38.1v92.3l-46.3-46.3 46.3-46z" fill="#62CCFD"/><path d="M222.7 38.1v32.8H256l-33.3-32.8z" fill="#0991FF"/></svg>

<?xml version="1.0" encoding="UTF-8" standalone="no"?>
<svg width="256px" height="261px" viewBox="0 0 256 261" version="1.1" xmlns="http://www.w3.org/2000/svg" xmlns:xlink="http://www.w3.org/1999/xlink" preserveAspectRatio="xMidYMid">
	<g>
		<path d="M92.5,92.2 L92.5,0 L0,0 L92.5,92.2 Z M256,70.9 L222.7,38.1 L176.4,84.1 L92.5,0 L92.5,260.9 L222.7,130.4 L222.7,70.9 L256,70.9 Z" fill="#0991FF"></path>
		<path d="M0,0 L92.5,92.2 L92.5,0 L0,0" fill="#62CCFD"></path>
		<path d="M92.5,260.9 L92.5,0 L222.7,130.4 L92.5,260.9" fill="#0991FF"></path>
		<path d="M222.7,38.1 L222.7,130.4 L176.4,84.1 L222.7,38.1 Z" fill="#62CCFD"></path>
		<path d="M222.7,38.1 L222.7,70.9 L256,70.9 L222.7,38.1 Z" fill="#0991FF"></path>
	</g>
</svg>
